X: 36167
T: Scotsman Over The Border, The
R: jig
M: 6/8
K: Dmixolydian
|:DED FDF|AFA d2A|{c}BAB BAB|dgf edB|
ADD FDF|AFA d2A|~B3 AFA|dAF E3:|
|:dfa afa|bag fef|dfa afe|def edB|
dfa afa|bag fed|B2B AFA|dAF E3:|

